tgui/packages/tgfont/icons/s1-boots.svg

<svg xmlns="http://www.w3.org/2000/svg" viewBox="0 0 512 512" style="height: 512px; width: 512px;"><g class="" transform="translate(0,0)" style=""><path d="M128 22.781c-11.101 10.941-19.822 27.6-26.076 41.203 6.044 20.063 11.083 40.869 27.539 54.926 18.862-14.015 27.05-33.752 35.187-56.351C154.631 51.155 144.412 34.368 128 22.78zm256 0c-16.412 11.587-26.631 28.374-36.65 39.778 8.137 22.599 16.325 42.336 35.187 56.351 16.456-14.057 21.495-34.863 27.54-54.926C403.821 50.381 395.1 33.722 384 22.781zM222.23 46.104c-11.546 2.749-24.948 7.229-37.04 12.68-8.622 28.9-21.924 55.363-45.965 74.734l16.55 177.107-19.933-8.438-14.61-167.787c-16.163-16.006-28.001-43.023-38.39-71.285-3.545-2.304-7.083-4.15-10.621-5.424 6.237 82.926 25.341 186.732 47.006 274.592 2.544-1.159 5.746-2.4 8.724-3.459 29.464 7.318 56.995 29.357 81.848 53.067C192 272 256 160 222.23 46.104zm67.54 0C256 160 320 272 302.2 381.89c24.853-23.71 52.384-45.75 81.848-53.067 2.978 1.06 6.18 2.3 8.724 3.46 21.665-87.86 40.77-191.667 47.006-274.593-3.538 1.274-7.076 3.12-10.62 5.424-10.39 28.262-22.228 55.28-38.391 71.285l-14.61 167.787-19.933 8.438 16.55-177.107c-24.04-19.37-37.343-45.834-45.964-74.735-12.093-5.45-25.495-9.93-37.041-12.68zM129.004 347.83c-13.31 5.672-27.915 18.355-33.014 34.666 23.725 4.679 52.808 18.407 75.524 40.389l3.947 26.867 33.467-12.074-1.33-29.082c-19.75-28.701-51.073-52.92-78.594-60.766zm253.992 0c-27.52 7.846-58.843 32.065-78.594 60.766l-1.33 29.082 33.467 12.074 3.947-26.867c22.716-21.982 51.8-35.71 75.524-40.389-5.099-16.311-19.704-28.994-33.014-34.666zM90.69 399.703l-52.257 39.272c-10.312 15.251-12.923 32.609-8.657 47.158 52.559 9.293 88.252-3.287 129.043-25.838l-4.275-29.084c-14.703-15.135-33.665-26.354-63.854-31.508zm330.622 0c-30.189 5.154-49.151 16.373-63.854 31.508l-4.275 29.084c40.791 22.55 76.484 35.131 129.043 25.838 4.266-14.55 1.655-31.907-8.657-47.158l-52.257-39.272z" fill="#fff" fill-opacity="1"></path></g></svg>

<svg xmlns="http://www.w3.org/2000/svg" viewBox="0 0 512 512" style="height: 512px; width: 512px;"><g class="" transform="translate(0,0)" style=""><g><path d="M128 22.781C116.899 33.722 108.178 50.381 101.924 63.984C107.968 84.047 113.007 104.853 129.463 118.91C148.325 104.895 156.513 85.158 164.65 62.559C154.631 51.155 144.412 34.368 128 22.78Z" class="" fill="#fff" fill-opacity="1"></path><path d="M384 22.781C367.588 34.368 357.369 51.155 347.35 62.559C355.487 85.158 363.675 104.895 382.537 118.91C398.993 104.853 404.032 84.047 410.077 63.984C403.821 50.381 395.1 33.722 384 22.781Z" class="" fill="#fff" fill-opacity="1"></path><path d="M222.23 46.104C210.684 48.853 197.282 53.333 185.19 58.784C176.568 87.684 163.266 114.147 139.225 133.518L155.775 310.625L135.842 302.187L121.232 134.4C105.069 118.394 93.231 91.377 82.842 63.115C79.297 60.811 75.759 58.965 72.221 57.691C78.458 140.617 97.562 244.423 119.227 332.283C121.771 331.124 124.973 329.883 127.951 328.824C157.415 336.142 184.946 358.181 209.799 381.891C192 272 256 160 222.23 46.104Z" class="" fill="#fff" fill-opacity="1"></path><path d="M289.77 46.104C256 160 320 272 302.2 381.89C327.053 358.18 354.584 336.14 384.048 328.823C387.026 329.883 390.228 331.123 392.772 332.283C414.437 244.423 433.542 140.616 439.778 57.69C436.24 58.964 432.702 60.81 429.158 63.114C418.768 91.376 406.93 118.394 390.767 134.399L376.157 302.186L356.224 310.624L372.774 133.517C348.734 114.147 335.431 87.683 326.81 58.782C314.717 53.332 301.315 48.852 289.769 46.102Z" class="" fill="#fff" fill-opacity="1"></path><path d="M129.004 347.83C115.694 353.502 101.089 366.185 95.99 382.496C119.715 387.175 148.798 400.903 171.514 422.885L175.461 449.752L208.928 437.678L207.598 408.596C187.848 379.895 156.525 355.676 129.004 347.83Z" class="" fill="#fff" fill-opacity="1"></path><path d="M382.996 347.83C355.476 355.676 324.153 379.895 304.402 408.596L303.072 437.678L336.539 449.752L340.486 422.885C363.202 400.903 392.286 387.175 416.01 382.496C410.911 366.185 396.306 353.502 382.996 347.83Z" class="" fill="#fff" fill-opacity="1"></path><path d="M90.69 399.703L38.433 438.975C28.121 454.226 25.51 471.584 29.776 486.133C82.335 495.426 118.028 482.846 158.819 460.295L154.544 431.211C139.841 416.076 120.879 404.857 90.69 399.703Z" class="" fill="#fff" fill-opacity="1"></path><path d="M421.312 399.703C391.123 404.857 372.161 416.076 357.458 431.211L353.183 460.295C393.974 482.845 429.667 495.426 482.226 486.133C486.492 471.583 483.881 454.226 473.569 438.975L421.312 399.703Z" class="selected" fill="#fff" fill-opacity="1"></path></g></g></svg>
